X:1
T:Bezeichnung standardisiert: My Lord Byron's maggot;
T:Bezeichnung standardisiert: My Lord Byron's maggot;
T:30 [Dantz in C nach Johann Friedrich Drey\sser, 1720] In anderer Quelle: My Lord Byron's maggot - Dancing-master 1709 (Anm. S. Wascher);  Wunke Dantz Sesken - Dahlhoff vor 1767 (Anm. S. Wascher);  Wenker-Tanz od Duller Jakob - Hs. aus Arendsee (Anm. S. Wascher) \"Ahnlich in anderer Quelle: Waltzer (2-30) - Dahlhoff SBB 1767 (Anm. S. Wascher);
T:Urheber unbekannt Erstbeleg: 1709 (Datum in der schriftlichen Quelle) Urheber unbekannt, 1720 belegt
C:Urheber unbekannt
C:Erstbeleg: 1709 (Datum in der schriftlichen Quelle)
C:Urheber unbekannt, 1720 belegt
%%score 1 2
L:1/8
M:3/4
K:C
V:1 treble 
V:2 bass 
V:1
 c2 | c2 G2 c2 | c2 G2 c2 | c2 cded | c4 e2 | e2 c2 e2 | e2 c2 e2 | e2 efgf | e4 g2 | e2 ef g2 | %10
 d2 de f2 | e2 ef g2 | d2 de f2 | e2 ef g2 | g2 a2 ^f2 | g2 g2 g2 | g4 :: g2 | e2 c2 e2 | %19
 f2 d2 f2 | e2 c2 e2 | f2 d2 f2 | e2 f2 g2 | g2 f2 e2 | d2 dd d2 |"^1)" x6 | g2 z2 z2 | f2 z2 z2 | %28
 e2 z2 z2 | d2 z2 z2 | e2 z2 z2 | f2 z2 z2 | e2 z2 z2 | d2 z2 g2 | ef g2 c2 | B2 G2 g2 | ef g2 c2 | %37
 B2 G2 g2 | ef g2 c2 | B2 G2 B2 | c2 cc c2 | c4 x2 :| %42
V:2
 !fermata!C,2 | C,2 C,2 C,2 | C,,2 C,,2 C,,2 | C,2 G,2 G,,2 | C,4 C,,2 | C,2 C,2 C,2 | %6
 C,,2 C,,2 C,,2 | C,2 G,2 G,,2 | C,4 C,2 | C,2 C,2 C,2 | G,,2 G,,2 G,,2 | C,2 C,2 C,2 | %12
 G,2 G,2 G,2 | C,2 C,2 C,2 | G,2 D,2 D,2 | G,,2 G,,2 G,,2 | G,,4 :: C,2 | C,2 C,2 C,2 | %19
 D,2 D,2 D,2 | C,2 C,2 C,2 | D,2 D,2 D,2 | C,2 D,2 C,2 | C,2 C,D,E,F, | G,2 G,,2 G,,2 | G,2 z2 z2 | %26
 C,2 z2 z2 | D,2 z2 z2 | C,2 z2 z2 | G,,2 z2 z2 | C,2 z2 z2 | D,2 z2 z2 | C,2 z2 z2 | G,,2 z2 C,2 | %34
 C,2 E,2 C,2 | G,2 G,2 C,2 | C,2 C,2 C,2 | G,,2 G,,2 G,,2 | C,2 C,2 C,2 | G,2 G,2 G,,2 | %40
 C,2 C,2 C,2 |"^2)" C,,2 C,,2 C,,2 :| %42

